src/epub/images/titlepage.svg

<?xml version="1.0" encoding="utf-8"?>
<svg xmlns="http://www.w3.org/2000/svg" xmlns:svg="http://www.w3.org/2000/svg" version="1.1" viewBox="0 0 1400 340">
	<title>The titlepage for the Standard Ebooks edition of Eminent Victorians, by Lytton Strachey</title>
	<g>
		<path d="m 176.57601,52.807016 -44.16374,0 0,77.192984 44.16374,0 0,-15.4386 -26.57309,0 0,-15.532161 25.45029,0 0,-15.438597 -25.45029,0 0,-15.345029 26.57309,0 0,-15.438597 z"/>
		<path d="m 255.50146,130 17.59064,0 -6.92398,-77.192984 -18.71345,0 -17.12281,44.538013 -17.1228,-44.538013 -18.71345,0 L 187.57163,130 l 17.59064,0 3.64913,-45.754387 0.46783,0 15.81287,45.286547 10.47953,0 15.81287,-45.286547 0.46783,0 L 255.50146,130 Z"/>
		<path d="m 302.72952,52.807016 -17.59064,0 0,77.192984 17.59064,0 0,-77.192984 z"/>
		<path d="m 336.60379,82.093566 0.18714,0 L 367.48098,130 l 17.59065,0 0,-77.192984 -17.59065,0 0,47.906434 -0.18713,0 -30.69006,-47.906434 -17.59064,0 0,77.192984 17.59064,0 0,-47.906434 z"/>
		<path d="m 445.47952,52.807016 -44.16375,0 0,77.192984 44.16375,0 0,-15.4386 -26.5731,0 0,-15.532161 25.45029,0 0,-15.438597 -25.45029,0 0,-15.345029 26.5731,0 0,-15.438597 z"/>
		<path d="m 478.18276,82.093566 0.18713,0 L 509.05995,130 l 17.59064,0 0,-77.192984 -17.59064,0 0,47.906434 -0.18714,0 -30.69005,-47.906434 -17.59065,0 0,77.192984 17.59065,0 0,-47.906434 z"/>
		<path d="m 533.46053,68.245613 18.33918,0 0,61.754387 17.59065,0 0,-61.754387 18.33918,0 0,-15.438597 -54.26901,0 0,15.438597 z"/>
		<path d="m 645.74855,130 13.84795,0 32.37427,-77.192984 -19.83626,0 -19.46199,50.713454 -19.46199,-50.713454 -19.83625,0 L 645.74855,130 Z"/>
		<path d="m 717.481,52.807016 -17.59064,0 0,77.192984 17.59064,0 0,-77.192984 z"/>
		<path d="m 771.91664,114.09357 c -17.68421,0 -25.45029,-12.35088 -25.45029,-22.736846 0,-10.292397 7.76608,-22.643275 25.45029,-22.643275 8.98246,0 15.1579,4.77193 15.1579,4.77193 l 7.48538,-14.97076 c 0,0 -8.60819,-7.111112 -25.35673,-7.111112 -21.89474,0 -41.82456,17.964913 -41.82456,40.140352 0,22.081871 20.02339,39.859651 41.82456,39.859651 16.74854,0 25.35673,-7.11111 25.35673,-7.11111 l -7.48538,-14.97076 c 0,0 -6.17544,4.77193 -15.1579,4.77193 z"/>
		<path d="m 801.51607,68.245613 18.33919,0 0,61.754387 17.59064,0 0,-61.754387 18.33918,0 0,-15.438597 -54.26901,0 0,15.438597 z"/>
		<path d="m 860.73391,91.356724 c 0,22.549706 16.09357,40.046786 38.92398,40.046786 22.17544,0 38.83041,-17.49708 38.83041,-40.046786 0,-22.549708 -17.40351,-39.953217 -38.83041,-39.953217 -21.23977,0 -38.92398,17.403509 -38.92398,39.953217 z m 18.99416,0 c 0,-11.508772 6.36257,-23.017544 19.92982,-23.017544 13.66082,0 19.83626,11.508772 19.83626,23.017544 0,11.508776 -5.80117,23.017546 -19.83626,23.017546 -14.40936,0 -19.92982,-11.50877 -19.92982,-23.017546 z"/>
		<path d="m 951.24998,52.807016 0,77.192984 17.59064,0 0,-30.502925 L 992.41957,130 l 22.36253,0 -26.57306,-31.906433 c 9.4503,-2.994152 15.81286,-10.760234 15.81286,-22.362574 0,-15.157895 -10.85379,-22.923977 -25.16958,-22.923977 l -27.60234,0 z m 17.59064,34.245615 0,-20.210527 2.05848,0 c 6.64328,0 14.59649,0.467836 14.59649,10.105263 0,9.637428 -7.95321,10.105264 -14.59649,10.105264 l -2.05848,0 z"/>
		<path d="m 1040.9093,52.807016 -17.5906,0 0,77.192984 17.5906,0 0,-77.192984 z"/>
		<path d="m 1096.3977,52.807016 -16.2808,0 L 1048.9591,130 l 18.9005,0 5.7076,-15.4386 29.3802,0 5.7076,15.4386 18.9005,0 -31.1578,-77.192984 z m 0.5614,46.31579 -17.4036,0 8.6082,-22.45614 0.1872,0 8.6082,22.45614 z"/>
		<path d="m 1153.0658,82.093566 0.1871,0 L 1183.943,130 l 17.5906,0 0,-77.192984 -17.5906,0 0,47.906434 -0.1872,0 -30.69,-47.906434 -17.5907,0 0,77.192984 17.5907,0 0,-47.906434 z"/>
		<path d="m 1244.3948,51.403507 c -12.4444,0 -25.1696,9.169591 -25.1696,23.578948 0,8.046784 5.4269,15.251462 14.6901,19.836258 9.1696,4.584795 17.4035,7.111107 17.4035,12.725147 0,7.20468 -7.2983,7.57895 -11.1345,7.57895 -8.6082,0 -18.9006,-8.70176 -18.9006,-8.70176 l -8.7953,14.78363 c 0,0 10.9473,10.19883 29.0058,10.19883 15.0643,0 29.0994,-6.45614 29.0994,-24.88889 0,-10.105264 -9.4503,-17.40351 -18.0584,-21.052632 -8.7954,-3.742691 -16.0936,-6.83041 -16.0936,-11.134504 0,-4.210526 3.1813,-6.923976 9.1696,-6.923976 7.9532,0 15.6257,5.333333 15.6257,5.333333 l 7.1111,-14.035088 c 0,0 -9.9181,-7.298246 -23.9532,-7.298246 z"/>
	</g>
	<g>
		<path d="m 335.98081,232.10526 -13.19298,0 0,57.89474 33.12281,0 0,-11.57895 -19.92983,0 0,-46.31579 z"/>
		<path d="m 355.60033,232.10526 21.33333,31.92983 0,25.96491 13.19299,0 0,-25.96491 21.33333,-31.92983 -15.85965,0 -12.07017,18.52632 -12.07018,-18.52632 -15.85965,0 z"/>
		<path d="m 414.93915,243.68421 13.75438,0 0,46.31579 13.19299,0 0,-46.31579 13.75438,0 0,-11.57895 -40.70175,0 0,11.57895 z"/>
		<path d="m 462.70231,243.68421 13.75438,0 0,46.31579 13.19299,0 0,-46.31579 13.75438,0 0,-11.57895 -40.70175,0 0,11.57895 z"/>
		<path d="m 508.36569,261.01754 c 0,16.91228 12.07017,30.03509 29.19298,30.03509 16.63158,0 29.12281,-13.12281 29.12281,-30.03509 0,-16.91228 -13.05263,-29.96491 -29.12281,-29.96491 -15.92982,0 -29.19298,13.05263 -29.19298,29.96491 z m 14.24561,0 c 0,-8.63157 4.77193,-17.26315 14.94737,-17.26315 10.24561,0 14.87719,8.63158 14.87719,17.26315 0,8.63158 -4.35087,17.26316 -14.87719,17.26316 -10.80702,0 -14.94737,-8.63158 -14.94737,-17.26316 z"/>
		<path d="m 590.69572,254.07018 0.14035,0 23.01754,35.92982 13.19299,0 0,-57.89474 -13.19299,0 0,35.92983 -0.14035,0 -23.01754,-35.92983 -13.19298,0 0,57.89474 13.19298,0 0,-35.92982 z"/>
		<path d="m 684.63102,231.05263 c -9.33333,0 -18.87719,6.8772 -18.87719,17.68421 0,6.03509 4.07018,11.4386 11.01754,14.8772 6.8772,3.43859 13.05263,5.33333 13.05263,9.54385 0,5.40351 -5.47368,5.68422 -8.35087,5.68422 -6.45614,0 -14.17544,-6.52632 -14.17544,-6.52632 l -6.59649,11.08772 c 0,0 8.21052,7.64912 21.75438,7.64912 11.29825,0 21.82457,-4.8421 21.82457,-18.66666 0,-7.57895 -7.08772,-13.05264 -13.54386,-15.78948 -6.5965,-2.80702 -12.07018,-5.12281 -12.07018,-8.35088 0,-3.15789 2.38597,-5.19298 6.87719,-5.19298 5.96492,0 11.7193,4 11.7193,4 l 5.33333,-10.52631 c 0,0 -7.43859,-5.47369 -17.96491,-5.47369 z"/>
		<path d="m 708.37116,243.68421 13.75439,0 0,46.31579 13.19298,0 0,-46.31579 13.75439,0 0,-11.57895 -40.70176,0 0,11.57895 z"/>
		<path d="m 758.82403,232.10526 0,57.89474 13.19298,0 0,-22.87719 17.68421,22.87719 16.77193,0 -19.92983,-23.92982 c 7.08772,-2.24562 11.85965,-8.07018 11.85965,-16.77193 0,-11.36842 -8.14035,-17.19299 -18.87719,-17.19299 l -20.70175,0 z m 13.19298,25.68421 0,-15.15789 1.54386,0 c 4.98245,0 10.94737,0.35088 10.94737,7.57895 0,7.22807 -5.96492,7.57894 -10.94737,7.57894 l -1.54386,0 z"/>
		<path d="m 843.52905,232.10526 -12.21053,0 L 807.9501,290 l 14.17544,0 4.2807,-11.57895 22.03509,0 4.2807,11.57895 14.17544,0 -23.36842,-57.89474 z m 0.42105,34.73685 -13.05263,0 6.45614,-16.84211 0.14035,0 6.45614,16.84211 z"/>
		<path d="m 902.70117,278.07018 c -13.26316,0 -19.08772,-9.26316 -19.08772,-17.05264 0,-7.71929 5.82456,-16.98245 19.08772,-16.98245 6.73684,0 11.36842,3.57895 11.36842,3.57895 l 5.61404,-11.22807 c 0,0 -6.45614,-5.33334 -19.01754,-5.33334 -16.42106,0 -31.36843,13.47369 -31.36843,30.10527 0,16.5614 15.01755,29.89473 31.36843,29.89473 12.5614,0 19.01754,-5.33333 19.01754,-5.33333 l -5.61404,-11.22807 c 0,0 -4.63158,3.57895 -11.36842,3.57895 z"/>
		<path d="m 942.99284,266.77193 18.66666,0 0,23.22807 13.19299,0 0,-57.89474 -13.19299,0 0,23.08772 -18.66666,0 0,-23.08772 -13.19298,0 0,57.89474 13.19298,0 0,-23.22807 z"/>
		<path d="m 1021.3766,232.10526 -33.12276,0 0,57.89474 33.12276,0 0,-11.57895 -19.9298,0 0,-11.64912 19.0877,0 0,-11.57895 -19.0877,0 0,-11.50877 19.9298,0 0,-11.57895 z"/>
		<path d="m 1027.6453,232.10526 21.3333,31.92983 0,25.96491 13.193,0 0,-25.96491 21.3333,-31.92983 -15.8596,0 -12.0702,18.52632 -12.0702,-18.52632 -15.8596,0 z"/>
	</g>
</svg>

<?xml version="1.0" encoding="utf-8"?>
<svg xmlns="http://www.w3.org/2000/svg" xmlns:svg="http://www.w3.org/2000/svg" version="1.1" viewBox="0 0 1400 340">
	<title>The titlepage for the Standard Ebooks edition of Eminent Victorians, by Lytton Strachey</title>
	<g aria-label="EMINENT VICTORIANS">
		<path d="M 176.57601,52.807016 H 132.41227 V 130 h 44.16374 V 114.5614 H 150.00292 V 99.029239 h 25.45029 V 83.590642 H 150.00292 V 68.245613 h 26.57309 z"/>
		<path d="M 255.50146,130 H 273.0921 L 266.16812,52.807016 H 247.45467 L 230.33186,97.345029 213.20906,52.807016 H 194.49561 L 187.57163,130 h 17.59064 l 3.64913,-45.754387 h 0.46783 l 15.81287,45.286547 h 10.47953 L 251.3845,84.245613 h 0.46783 z"/>
		<path d="M 302.72952,52.807016 H 285.13888 V 130 h 17.59064 z"/>
		<path d="m 336.60379,82.093566 h 0.18714 L 367.48098,130 h 17.59065 V 52.807016 h -17.59065 v 47.906434 h -0.18713 L 336.60379,52.807016 H 319.01315 V 130 h 17.59064 z"/>
		<path d="M 445.47952,52.807016 H 401.31577 V 130 h 44.16375 v -15.4386 h -26.5731 V 99.029239 h 25.45029 V 83.590642 H 418.90642 V 68.245613 h 26.5731 z"/>
		<path d="m 478.18276,82.093566 h 0.18713 L 509.05995,130 h 17.59064 V 52.807016 h -17.59064 v 47.906434 h -0.18714 L 478.18276,52.807016 H 460.59211 V 130 h 17.59065 z"/>
		<path d="m 533.46053,68.245613 h 18.33918 V 130 h 17.59065 V 68.245613 h 18.33918 V 52.807016 h -54.26901 z"/>
		<path d="M 645.74855,130 H 659.5965 L 691.97077,52.807016 H 672.13451 L 652.67252,103.52047 633.21053,52.807016 h -19.83625 z"/>
		<path d="M 717.481,52.807016 H 699.89036 V 130 H 717.481 Z"/>
		<path d="m 771.91664,114.09357 c -17.68421,0 -25.45029,-12.35088 -25.45029,-22.736846 0,-10.292397 7.76608,-22.643275 25.45029,-22.643275 8.98246,0 15.1579,4.77193 15.1579,4.77193 l 7.48538,-14.97076 c 0,0 -8.60819,-7.111112 -25.35673,-7.111112 -21.89474,0 -41.82456,17.964913 -41.82456,40.140352 0,22.081871 20.02339,39.859651 41.82456,39.859651 16.74854,0 25.35673,-7.11111 25.35673,-7.11111 l -7.48538,-14.97076 c 0,0 -6.17544,4.77193 -15.1579,4.77193 z"/>
		<path d="m 801.51607,68.245613 h 18.33919 V 130 H 837.4459 V 68.245613 h 18.33918 V 52.807016 h -54.26901 z"/>
		<path d="m 860.73391,91.356724 c 0,22.549706 16.09357,40.046786 38.92398,40.046786 22.17544,0 38.83041,-17.49708 38.83041,-40.046786 0,-22.549708 -17.40351,-39.953217 -38.83041,-39.953217 -21.23977,0 -38.92398,17.403509 -38.92398,39.953217 z m 18.99416,0 c 0,-11.508772 6.36257,-23.017544 19.92982,-23.017544 13.66082,0 19.83626,11.508772 19.83626,23.017544 0,11.508776 -5.80117,23.017546 -19.83626,23.017546 -14.40936,0 -19.92982,-11.50877 -19.92982,-23.017546 z"/>
		<path d="M 951.24998,52.807016 V 130 h 17.59064 V 99.497075 L 992.41957,130 h 22.36253 L 988.20904,98.093567 c 9.4503,-2.994152 15.81286,-10.760234 15.81286,-22.362574 0,-15.157895 -10.85379,-22.923977 -25.16958,-22.923977 z m 17.59064,34.245615 V 66.842104 h 2.05848 c 6.64328,0 14.59649,0.467836 14.59649,10.105263 0,9.637428 -7.95321,10.105264 -14.59649,10.105264 z"/>
		<path d="m 1040.9093,52.807016 h -17.5906 V 130 h 17.5906 z"/>
		<path d="m 1096.3977,52.807016 h -16.2808 L 1048.9591,130 h 18.9005 l 5.7076,-15.4386 h 29.3802 L 1108.655,130 h 18.9005 z m 0.5614,46.31579 h -17.4036 l 8.6082,-22.45614 h 0.1872 z"/>
		<path d="m 1153.0658,82.093566 h 0.1871 L 1183.943,130 h 17.5906 V 52.807016 h -17.5906 v 47.906434 h -0.1872 l -30.69,-47.906434 h -17.5907 V 130 h 17.5907 z"/>
		<path d="m 1244.3948,51.403507 c -12.4444,0 -25.1696,9.169591 -25.1696,23.578948 0,8.046784 5.4269,15.251462 14.6901,19.836258 9.1696,4.584795 17.4035,7.111107 17.4035,12.725147 0,7.20468 -7.2983,7.57895 -11.1345,7.57895 -8.6082,0 -18.9006,-8.70176 -18.9006,-8.70176 l -8.7953,14.78363 c 0,0 10.9473,10.19883 29.0058,10.19883 15.0643,0 29.0994,-6.45614 29.0994,-24.88889 0,-10.105264 -9.4503,-17.40351 -18.0584,-21.052632 -8.7954,-3.742691 -16.0936,-6.83041 -16.0936,-11.134504 0,-4.210526 3.1813,-6.923976 9.1696,-6.923976 7.9532,0 15.6257,5.333333 15.6257,5.333333 l 7.1111,-14.035088 c 0,0 -9.9181,-7.298246 -23.9532,-7.298246 z"/>
	</g>
	<g aria-label="LYTTON STRACHEY">
		<path d="M 335.98081,232.10526 H 322.78783 V 290 h 33.12281 v -11.57895 h -19.92983 z"/>
		<path d="m 355.60033,232.10526 21.33333,31.92983 V 290 h 13.19299 v -25.96491 l 21.33333,-31.92983 h -15.85965 l -12.07017,18.52632 -12.07018,-18.52632 z"/>
		<path d="m 414.93915,243.68421 h 13.75438 V 290 h 13.19299 v -46.31579 h 13.75438 v -11.57895 h -40.70175 z"/>
		<path d="m 462.70231,243.68421 h 13.75438 V 290 h 13.19299 v -46.31579 h 13.75438 v -11.57895 h -40.70175 z"/>
		<path d="m 508.36569,261.01754 c 0,16.91228 12.07017,30.03509 29.19298,30.03509 16.63158,0 29.12281,-13.12281 29.12281,-30.03509 0,-16.91228 -13.05263,-29.96491 -29.12281,-29.96491 -15.92982,0 -29.19298,13.05263 -29.19298,29.96491 z m 14.24561,0 c 0,-8.63157 4.77193,-17.26315 14.94737,-17.26315 10.24561,0 14.87719,8.63158 14.87719,17.26315 0,8.63158 -4.35087,17.26316 -14.87719,17.26316 -10.80702,0 -14.94737,-8.63158 -14.94737,-17.26316 z"/>
		<path d="m 590.69572,254.07018 h 0.14035 L 613.85361,290 h 13.19299 v -57.89474 h -13.19299 v 35.92983 h -0.14035 L 590.69572,232.10526 H 577.50274 V 290 h 13.19298 z"/>
		<path d="m 684.63102,231.05263 c -9.33333,0 -18.87719,6.8772 -18.87719,17.68421 0,6.03509 4.07018,11.4386 11.01754,14.8772 6.8772,3.43859 13.05263,5.33333 13.05263,9.54385 0,5.40351 -5.47368,5.68422 -8.35087,5.68422 -6.45614,0 -14.17544,-6.52632 -14.17544,-6.52632 l -6.59649,11.08772 c 0,0 8.21052,7.64912 21.75438,7.64912 11.29825,0 21.82457,-4.8421 21.82457,-18.66666 0,-7.57895 -7.08772,-13.05264 -13.54386,-15.78948 -6.5965,-2.80702 -12.07018,-5.12281 -12.07018,-8.35088 0,-3.15789 2.38597,-5.19298 6.87719,-5.19298 5.96492,0 11.7193,4 11.7193,4 l 5.33333,-10.52631 c 0,0 -7.43859,-5.47369 -17.96491,-5.47369 z"/>
		<path d="m 708.37116,243.68421 h 13.75439 V 290 h 13.19298 v -46.31579 h 13.75439 v -11.57895 h -40.70176 z"/>
		<path d="M 758.82403,232.10526 V 290 h 13.19298 V 267.12281 L 789.70122,290 h 16.77193 l -19.92983,-23.92982 c 7.08772,-2.24562 11.85965,-8.07018 11.85965,-16.77193 0,-11.36842 -8.14035,-17.19299 -18.87719,-17.19299 z m 13.19298,25.68421 v -15.15789 h 1.54386 c 4.98245,0 10.94737,0.35088 10.94737,7.57895 0,7.22807 -5.96492,7.57894 -10.94737,7.57894 z"/>
		<path d="M 843.52905,232.10526 H 831.31852 L 807.9501,290 h 14.17544 l 4.2807,-11.57895 h 22.03509 L 852.72203,290 h 14.17544 z m 0.42105,34.73685 H 830.89747 L 837.35361,250 h 0.14035 z"/>
		<path d="m 902.70117,278.07018 c -13.26316,0 -19.08772,-9.26316 -19.08772,-17.05264 0,-7.71929 5.82456,-16.98245 19.08772,-16.98245 6.73684,0 11.36842,3.57895 11.36842,3.57895 l 5.61404,-11.22807 c 0,0 -6.45614,-5.33334 -19.01754,-5.33334 -16.42106,0 -31.36843,13.47369 -31.36843,30.10527 0,16.5614 15.01755,29.89473 31.36843,29.89473 12.5614,0 19.01754,-5.33333 19.01754,-5.33333 l -5.61404,-11.22807 c 0,0 -4.63158,3.57895 -11.36842,3.57895 z"/>
		<path d="M 942.99284,266.77193 H 961.6595 V 290 h 13.19299 V 232.10526 H 961.6595 v 23.08772 H 942.99284 V 232.10526 H 929.79986 V 290 h 13.19298 z"/>
		<path d="M 1021.3766,232.10526 H 988.25384 V 290 h 33.12276 v -11.57895 h -19.9298 v -11.64912 h 19.0877 v -11.57895 h -19.0877 v -11.50877 h 19.9298 z"/>
		<path d="m 1027.6453,232.10526 21.3333,31.92983 V 290 h 13.193 v -25.96491 l 21.3333,-31.92983 h -15.8596 l -12.0702,18.52632 -12.0702,-18.52632 z"/>
	</g>
</svg>
